X: 365
T:I Wish That I Could Go With You
M:3/4
L:1/4
B:O'Neill's 365
N:"With Feeling."
N:"collected by F. O'Neill."
Z:Transcribed by Chris Falt, cfalt@trytel.com
K:D
F/2G/2|A2g|f2d|e2A|B2cBA/2G/2|
F2A|d2d|d3-|d2e||
f2e|f2g|a2f|g2e/2d/2|
c2A|B2G|A3-|Ade|
f2e|f2g|a2f|g2e/2d/2|
c2A|B2G|A3-|AFG|
A2g|f2d|e2A|B2cBA/2G/2|
F2A|d2d|d3-|d2||
